archdroid-icon-theme/Archdroid-DeepOrangeDark/status/scalable/network-wired-disconnected.svg

<?xml version="1.0" encoding="UTF-8" standalone="no"?>
<svg
   xmlns:dc="http://purl.org/dc/elements/1.1/"
   xmlns:cc="http://creativecommons.org/ns#"
   xmlns:rdf="http://www.w3.org/1999/02/22-rdf-syntax-ns#"
   xmlns:svg="http://www.w3.org/2000/svg"
   xmlns="http://www.w3.org/2000/svg"
   xmlns:sodipodi="http://sodipodi.sourceforge.net/DTD/sodipodi-0.dtd"
   xmlns:inkscape="http://www.inkscape.org/namespaces/inkscape"
   fill="#BF360C"
   width="48"
   height="48"
   viewBox="0 0 48 48"
   id="svg2"
   version="1.1"
   inkscape:version="0.91 r13725"
   sodipodi:docname="network-wired-disconnected.svg">
  <metadata
     id="metadata10">
    <rdf:RDF>
      <cc:Work
         rdf:about="">
        <dc:format>image/svg+xml</dc:format>
        <dc:type
           rdf:resource="http://purl.org/dc/dcmitype/StillImage" />
      </cc:Work>
    </rdf:RDF>
  </metadata>
  <defs
     id="defs8" />
  <sodipodi:namedview
     pagecolor="#ffffff"
     bordercolor="#666666"
     borderopacity="1"
     objecttolerance="10"
     gridtolerance="10"
     guidetolerance="10"
     inkscape:pageopacity="0"
     inkscape:pageshadow="2"
     inkscape:window-width="1366"
     inkscape:window-height="713"
     id="namedview6"
     showgrid="false"
     inkscape:snap-bbox="true"
     inkscape:bbox-nodes="true"
     inkscape:zoom="5.512044273741684"
     inkscape:cx="16.964912053604"
     inkscape:cy="36.68048783194997"
     inkscape:window-x="0"
     inkscape:window-y="30"
     inkscape:window-maximized="1"
     inkscape:current-layer="svg2" />
  <path
     d="M 18 6 L 15.439453125 8.552734375 L 20.8671875 13.98046875 L 26 13.98046875 L 18 6 z M 12.609375 11.37890625 L 10 13.98046875 L 15.2109375 13.98046875 L 12.609375 11.37890625 z M 16 14.76953125 L 16 28 L 20 28 L 20 18.76953125 L 16 14.76953125 z M 28 20 L 28 21.11328125 L 32 25.11328125 L 32 20 L 28 20 z M 28 26.76953125 L 28 34.01953125 L 22 34.01953125 L 30 42 L 36.623046875 35.392578125 L 35.25 34.01953125 L 32 34.01953125 L 32 30.76953125 L 28 26.76953125 z "
     id="path4" />
  <rect
     style="opacity:1;fill:#BF360C;fill-opacity:1;fill-rule:nonzero;stroke:none;stroke-width:4;stroke-miterlimit:4;stroke-dasharray:none;stroke-opacity:1"
     id="rect4138"
     width="44"
     height="4"
     x="-55.94112396240234"
     y="-2.041629791259766"
     transform="matrix(-0.7071067811865475,-0.7071067811865474,-0.7071067811865474,0.7071067811865475,0,0)" />
</svg>

<svg xmlns="http://www.w3.org/2000/svg" fill="#BF360C" viewBox="0 0 48 48"><path d="m18 6l-2.561 2.553 5.428 5.428h5.133l-8-7.98m-5.391 5.379l-2.609 2.602h5.211l-2.602-2.602m3.391 3.391v13.23h4v-9.23l-4-4m12 5.23v1.113l4 4v-5.113h-4m0 6.77v7.25h-6l8 7.98 6.623-6.607-1.373-1.373h-3.25v-3.25l-4-4"/><path transform="matrix(-.70711-.70711-.70711.70711 0 0)" d="m-55.941-2.042h44v4h-44z"/></svg>
